X:1
T:I've Been Working on the Railroad  "CYMRU"
M:C
L:1/8
Q:80
C:
S:
K:HP
| {g}d2-d3/2{e}A/2{g}d3/2{e}A/2{g}d3/2e/2 | \
{g}f4{g}d4 | \
g2-g3/2{f}g/2d2e2 |
{g}f4-f4 | | \
{g}d2-d3/2{e}A/2{g}d3/2{e}A/2{g}d3/2e/2 | \
{g}f4{g}d2f2 |
{gfg}f2e2{A}e2f2 | \
{gef}e4-e4 | | \
{g}e2-e3/2d/2{g}e3/2d/2{g}f3/2e/2 |
{g}d4{e}A4 | \
g2-g3/2{f}g/2d2e2 | \
{g}f4-f4| |
{g}B2-B3/2c/2{g}d3/2c/2{g}d3/2c/2 | \
{g}A4{g}d4 | \
{g}f2e2{g}d2c2 |
{Gdc}d4-d4|]
